flaticon/sport/yoga-ball.svg

<svg xmlns="http://www.w3.org/2000/svg" width="32" height="32" viewBox="0 0 24 24">
    <path d="M 21.421875 4.582031 L 21.417969 4.566406 L 21.363281 4.5 C 21.332031 4.460938 21.296875 4.421875 21.265625 4.382812 C 21.25 4.363281 21.234375 4.347656 21.21875 4.328125 C 19.84375 2.679688 18.09375 1.453125 16.132812 0.734375 L 16.132812 0.730469 L 16.09375 0.71875 C 15.945312 0.664062 15.792969 0.613281 15.640625 0.566406 C 15.597656 0.554688 15.558594 0.539062 15.519531 0.527344 C 15.378906 0.484375 15.238281 0.445312 15.097656 0.40625 C 15.027344 0.390625 14.960938 0.371094 14.890625 0.355469 C 14.765625 0.324219 14.640625 0.292969 14.515625 0.269531 C 14.425781 0.25 14.335938 0.230469 14.246094 0.214844 C 14.136719 0.191406 14.023438 0.171875 13.914062 0.15625 C 13.800781 0.136719 13.691406 0.121094 13.582031 0.109375 C 13.484375 0.09375 13.386719 0.0820312 13.289062 0.0703125 C 13.21875 0.0625 13.144531 0.0585938 13.074219 0.0507812 C 13.019531 0.046875 12.964844 0.0429688 12.910156 0.0390625 C 12.898438 0.0390625 12.890625 0.0351562 12.878906 0.0351562 C 12.804688 0.03125 12.726562 0.0234375 12.652344 0.0195312 C 12.433594 0.0078125 12.21875 0 12 0 C 10.945312 0 9.925781 0.136719 8.953125 0.394531 L 8.949219 0.394531 L 8.738281 0.453125 C 8.714844 0.457031 8.695312 0.464844 8.675781 0.472656 C 8.492188 0.527344 8.308594 0.582031 8.128906 0.644531 C 8.085938 0.660156 8.039062 0.675781 7.996094 0.691406 C 7.804688 0.757812 7.613281 0.828125 7.429688 0.90625 C 7.402344 0.917969 7.378906 0.925781 7.351562 0.9375 C 7.15625 1.019531 6.960938 1.109375 6.765625 1.203125 C 6.675781 1.246094 6.589844 1.292969 6.5 1.339844 C 6.402344 1.390625 6.304688 1.441406 6.207031 1.496094 C 6.097656 1.554688 5.992188 1.617188 5.882812 1.683594 C 5.816406 1.722656 5.75 1.761719 5.683594 1.804688 C 5.5625 1.878906 5.441406 1.957031 5.320312 2.035156 C 5.289062 2.058594 5.257812 2.082031 5.222656 2.105469 C 4.621094 2.519531 4.054688 2.988281 3.535156 3.503906 C 3.523438 3.511719 3.515625 3.523438 3.503906 3.535156 C 2.984375 4.054688 2.511719 4.625 2.09375 5.238281 C 2.074219 5.261719 2.058594 5.285156 2.042969 5.3125 C 1.960938 5.433594 1.882812 5.554688 1.808594 5.675781 C 1.765625 5.742188 1.726562 5.808594 1.6875 5.875 C 1.621094 5.984375 1.558594 6.089844 1.496094 6.203125 C 1.445312 6.296875 1.394531 6.390625 1.347656 6.488281 C 1.300781 6.578125 1.25 6.667969 1.207031 6.761719 C 1.113281 6.953125 1.023438 7.148438 0.941406 7.34375 C 0.929688 7.367188 0.921875 7.390625 0.910156 7.417969 C 0.832031 7.605469 0.761719 7.792969 0.691406 7.984375 C 0.6875 8.003906 0.679688 8.019531 0.671875 8.035156 L 0.605469 8.230469 L 0.609375 8.238281 C 0.214844 9.421875 0 10.683594 0 12 C 0 12.203125 0.00390625 12.40625 0.015625 12.609375 C 0.015625 12.621094 0.015625 12.636719 0.0195312 12.652344 C 0.0234375 12.714844 0.0273438 12.777344 0.03125 12.839844 C 0.0390625 12.964844 0.046875 13.089844 0.0625 13.214844 C 0.0625 13.238281 0.0664062 13.265625 0.0703125 13.289062 C 0.078125 13.367188 0.0898438 13.441406 0.0976562 13.519531 C 0.109375 13.617188 0.121094 13.71875 0.136719 13.816406 C 0.140625 13.847656 0.148438 13.875 0.152344 13.90625 C 0.152344 13.910156 0.152344 13.910156 0.15625 13.914062 C 0.167969 14 0.183594 14.085938 0.199219 14.171875 C 0.214844 14.25 0.226562 14.328125 0.242188 14.40625 C 0.25 14.433594 0.253906 14.460938 0.261719 14.488281 C 0.261719 14.5 0.265625 14.511719 0.269531 14.523438 C 0.289062 14.621094 0.3125 14.71875 0.335938 14.816406 C 0.347656 14.871094 0.363281 14.929688 0.375 14.984375 C 0.382812 15.011719 0.390625 15.042969 0.398438 15.070312 C 0.402344 15.082031 0.40625 15.09375 0.410156 15.105469 C 0.441406 15.21875 0.46875 15.332031 0.503906 15.445312 C 0.515625 15.480469 0.527344 15.515625 0.539062 15.554688 C 0.546875 15.582031 0.554688 15.609375 0.566406 15.636719 C 0.566406 15.640625 0.566406 15.640625 0.566406 15.640625 C 0.679688 16 0.808594 16.351562 0.953125 16.695312 L 0.992188 16.789062 L 0.996094 16.789062 C 1.734375 18.484375 2.863281 20 4.328125 21.21875 C 4.347656 21.234375 4.363281 21.25 4.382812 21.265625 C 4.421875 21.296875 4.460938 21.332031 4.5 21.363281 L 4.566406 21.417969 L 4.582031 21.421875 C 6.625 23.035156 9.199219 24 12 24 C 18.617188 24 24 18.617188 24 12 C 24 9.199219 23.035156 6.625 21.421875 4.582031 Z M 21.101562 8.277344 C 21.101562 15.347656 15.347656 21.101562 8.277344 21.101562 C 7.160156 21.101562 6.042969 20.957031 4.960938 20.667969 C 3.757812 19.6875 2.765625 18.464844 2.054688 17.078125 C 2.9375 17.277344 3.84375 17.378906 4.757812 17.378906 C 11.488281 17.378906 16.964844 11.902344 16.964844 5.171875 C 16.964844 4.011719 16.800781 2.871094 16.480469 1.769531 C 18.117188 2.488281 19.550781 3.589844 20.667969 4.960938 C 20.957031 6.042969 21.101562 7.160156 21.101562 8.277344 Z M 12.796875 0.859375 C 12.804688 0.859375 12.808594 0.859375 12.816406 0.859375 C 12.875 0.863281 12.9375 0.871094 12.996094 0.875 C 13.238281 0.898438 13.476562 0.925781 13.71875 0.960938 C 13.734375 0.964844 13.753906 0.96875 13.773438 0.96875 C 13.785156 0.972656 13.796875 0.972656 13.804688 0.976562 C 14.066406 1.019531 14.324219 1.070312 14.578125 1.132812 C 14.609375 1.136719 14.640625 1.144531 14.667969 1.152344 C 14.933594 1.21875 15.191406 1.292969 15.449219 1.375 C 15.464844 1.378906 15.476562 1.386719 15.492188 1.390625 C 15.921875 2.605469 16.136719 3.875 16.136719 5.171875 C 16.136719 11.445312 11.03125 16.550781 4.757812 16.550781 C 3.691406 16.550781 2.632812 16.402344 1.613281 16.109375 C 1.585938 16.042969 1.558594 15.976562 1.535156 15.910156 C 1.519531 15.867188 1.5 15.820312 1.484375 15.777344 C 1.441406 15.652344 1.398438 15.523438 1.355469 15.398438 C 1.34375 15.351562 1.328125 15.308594 1.316406 15.261719 C 1.277344 15.136719 1.238281 15.007812 1.203125 14.878906 C 1.1875 14.8125 1.171875 14.746094 1.15625 14.679688 C 1.125 14.570312 1.101562 14.457031 1.078125 14.34375 C 1.074219 14.339844 1.074219 14.335938 1.074219 14.332031 C 1.054688 14.25 1.039062 14.164062 1.023438 14.082031 C 1.007812 13.988281 0.988281 13.898438 0.976562 13.804688 C 0.972656 13.789062 0.96875 13.773438 0.96875 13.757812 C 0.953125 13.660156 0.9375 13.5625 0.925781 13.464844 C 0.917969 13.398438 0.90625 13.332031 0.898438 13.261719 C 0.898438 13.234375 0.894531 13.203125 0.890625 13.175781 C 0.878906 13.054688 0.867188 12.9375 0.859375 12.816406 C 0.855469 12.777344 0.851562 12.738281 0.851562 12.699219 C 0.847656 12.664062 0.84375 12.625 0.84375 12.589844 C 0.832031 12.394531 0.828125 12.195312 0.828125 12 C 0.828125 10.960938 0.972656 9.960938 1.238281 9.003906 C 1.902344 9.613281 2.78125 9.933594 3.777344 9.933594 C 4.03125 9.933594 4.292969 9.910156 4.558594 9.871094 C 5.890625 9.664062 7.214844 8.957031 8.292969 7.878906 C 9.371094 6.800781 10.078125 5.476562 10.285156 4.144531 C 10.46875 2.960938 10.238281 1.890625 9.632812 1.082031 C 10.398438 0.917969 11.1875 0.828125 12 0.828125 C 12.265625 0.828125 12.53125 0.839844 12.796875 0.859375 Z M 1.5625 8.023438 C 1.621094 7.871094 1.679688 7.722656 1.742188 7.574219 C 1.777344 7.5 1.808594 7.425781 1.84375 7.351562 C 1.890625 7.25 1.9375 7.148438 1.988281 7.050781 C 2.03125 6.960938 2.078125 6.867188 2.128906 6.777344 C 2.167969 6.703125 2.207031 6.628906 2.25 6.554688 C 2.308594 6.449219 2.367188 6.34375 2.429688 6.242188 C 2.453125 6.199219 2.480469 6.160156 2.507812 6.117188 C 2.867188 5.542969 3.273438 5 3.726562 4.5 C 3.730469 4.496094 3.734375 4.492188 3.738281 4.488281 C 3.851562 4.359375 3.972656 4.234375 4.09375 4.113281 C 4.101562 4.105469 4.109375 4.097656 4.113281 4.09375 C 4.714844 3.496094 5.382812 2.964844 6.101562 2.515625 C 6.15625 2.484375 6.207031 2.449219 6.261719 2.417969 C 6.359375 2.359375 6.460938 2.300781 6.558594 2.246094 C 6.640625 2.203125 6.71875 2.15625 6.800781 2.117188 C 6.886719 2.070312 6.972656 2.027344 7.058594 1.984375 C 7.167969 1.929688 7.277344 1.878906 7.390625 1.828125 C 7.453125 1.796875 7.515625 1.769531 7.582031 1.738281 C 7.960938 1.578125 8.347656 1.433594 8.746094 1.3125 C 9.382812 1.957031 9.636719 2.917969 9.464844 4.015625 C 9.285156 5.175781 8.660156 6.335938 7.707031 7.292969 C 6.75 8.246094 5.589844 8.871094 4.429688 9.050781 C 3.320312 9.226562 2.355469 8.964844 1.707031 8.316406 C 1.648438 8.253906 1.585938 8.1875 1.527344 8.109375 C 1.539062 8.082031 1.550781 8.050781 1.5625 8.023438 Z M 12 23.171875 C 10.082031 23.171875 8.277344 22.6875 6.699219 21.832031 C 7.222656 21.894531 7.75 21.929688 8.277344 21.929688 C 15.804688 21.929688 21.929688 15.804688 21.929688 8.277344 C 21.929688 7.75 21.894531 7.222656 21.832031 6.699219 C 22.6875 8.277344 23.171875 10.082031 23.171875 12 C 23.171875 18.160156 18.160156 23.171875 12 23.171875 Z M 12 23.171875"/>
</svg>

<svg xmlns="http://www.w3.org/2000/svg" width="32" height="32" viewBox="0 0 24 24">
    <path d="M21.422 4.582l-.004-.016-.055-.066c-.031-.04-.066-.078-.097-.117-.016-.02-.032-.035-.047-.055A11.985 11.985 0 0 0 16.133.734V.73l-.04-.011a8.808 8.808 0 0 0-.452-.153c-.043-.011-.082-.027-.121-.039a17.1 17.1 0 0 0-.422-.12C15.028.39 14.96.37 14.89.354c-.125-.03-.25-.062-.375-.085-.09-.02-.18-.04-.27-.055a4.926 4.926 0 0 0-.332-.059 5.214 5.214 0 0 0-.332-.047 7.52 7.52 0 0 0-.293-.039c-.07-.008-.144-.011-.215-.02L12.91.04c-.012 0-.02-.005-.031-.005-.074-.004-.152-.012-.227-.015a11.867 11.867 0 0 0-3.7.375H8.95l-.21.058c-.024.004-.044.012-.063.02-.184.054-.367.109-.547.172-.043.015-.09.03-.133.046a8.913 8.913 0 0 0-.566.215l-.078.031c-.196.083-.391.172-.586.266-.09.043-.176.09-.266.137-.098.05-.195.101-.293.156-.11.059-.215.121-.324.188a18.701 18.701 0 0 0-.563.352 2.115 2.115 0 0 1-.097.07 12.29 12.29 0 0 0-1.688 1.398c-.012.008-.02.02-.031.031a11.834 11.834 0 0 0-1.817 2.34c-.066.11-.128.215-.19.328-.052.094-.102.188-.15.285-.046.09-.097.18-.14.274-.094.191-.184.386-.266.582a14.136 14.136 0 0 0-.27.691l-.066.195.004.008A11.861 11.861 0 0 0 .07 13.29c.008.078.02.152.028.23.011.098.023.2.039.297.004.032.011.059.015.09 0 .004 0 .004.004.008.012.086.028.172.043.258.016.078.028.156.043.234.008.028.012.055.02.082a7.895 7.895 0 0 0 .074.328l.039.168.023.086.012.035c.031.114.059.227.094.34l.035.11c.008.027.016.054.027.082v.004c.114.359.243.71.387 1.054l.04.094h.003a11.973 11.973 0 0 0 3.332 4.43c.02.015.035.031.055.047.039.03.078.066.117.097l.066.055.016.004A11.926 11.926 0 0 0 12 24c6.617 0 12-5.383 12-12 0-2.8-.965-5.375-2.578-7.418zm-.32 3.695c0 7.07-5.754 12.825-12.825 12.825a12.86 12.86 0 0 1-3.316-.434 11.263 11.263 0 0 1-2.906-3.59c.882.2 1.789.3 2.703.3 6.73 0 12.207-5.476 12.207-12.206 0-1.16-.164-2.3-.485-3.402 1.637.718 3.07 1.82 4.188 3.19.289 1.083.434 2.2.434 3.317zM12.797.86h.02c.058.004.12.012.18.016a15.173 15.173 0 0 1 .776.094c.012.004.024.004.032.008.261.043.52.093.773.156a.607.607 0 0 1 .09.02c.266.066.523.14.781.222.016.004.028.012.043.016.43 1.214.645 2.484.645 3.78 0 6.274-5.106 11.38-11.38 11.38-1.066 0-2.124-.149-3.144-.442-.027-.066-.054-.132-.078-.199-.015-.043-.035-.09-.05-.133-.044-.125-.087-.254-.13-.379-.011-.046-.027-.09-.039-.136-.039-.125-.078-.254-.113-.383l-.047-.2a4.67 4.67 0 0 1-.078-.335c-.004-.004-.004-.008-.004-.012-.02-.082-.035-.168-.05-.25-.016-.094-.036-.184-.047-.277a7.563 7.563 0 0 1-.05-.34l-.029-.203a.639.639 0 0 0-.007-.086c-.012-.121-.024-.239-.032-.36-.004-.039-.007-.078-.007-.117a9.909 9.909 0 0 1-.023-.7c0-1.038.144-2.038.41-2.995.663.61 1.542.93 2.538.93.254 0 .516-.024.782-.063 1.332-.207 2.656-.914 3.734-1.992 1.078-1.078 1.785-2.402 1.992-3.734.184-1.184-.047-2.254-.652-3.063a10.866 10.866 0 0 1 3.164-.223zM1.562 8.023c.06-.152.118-.3.18-.449l.102-.222c.047-.102.093-.204.144-.301.043-.09.09-.184.14-.274.04-.074.079-.148.122-.222.059-.106.117-.211.18-.313.023-.043.05-.082.078-.125a11.457 11.457 0 0 1 1.586-2.004l.02-.02a11.393 11.393 0 0 1 1.988-1.577c.054-.032.105-.067.16-.098.097-.059.199-.117.297-.172.082-.043.16-.09.242-.129a8.637 8.637 0 0 1 .59-.29c.062-.03.125-.057.191-.089.379-.16.766-.304 1.164-.425.637.644.89 1.605.719 2.703-.18 1.16-.805 2.32-1.758 3.277-.957.953-2.117 1.578-3.277 1.758-1.11.176-2.075-.086-2.723-.735-.059-.062-.121-.129-.18-.207l.036-.086zM12 23.172c-1.918 0-3.723-.485-5.3-1.34.523.063 1.05.098 1.577.098 7.528 0 13.653-6.125 13.653-13.653 0-.527-.035-1.054-.098-1.578A11.086 11.086 0 0 1 23.172 12c0 6.16-5.012 11.172-11.172 11.172zm0 0"/>
</svg>
